symbolic/32x32/apps/quaternion.svg

<svg xmlns="http://www.w3.org/2000/svg" width="32" height="32" version="1">
 <path style="opacity:0.2" d="M 15.5,2 A 14.5,14.5 0 0 0 1,16.5 14.5,14.5 0 0 0 15.5,31 H 28.55 C 29.3533,31 30,30.3533 30,29.55 V 16.5 A 14.5,14.5 0 0 0 15.5,2 Z"/>
 <path style="fill:#1d99f3" d="M 15.5,1 A 14.5,14.5 0 0 0 1,15.5 14.5,14.5 0 0 0 15.5,30 H 28.55 C 29.3533,30 30,29.3533 30,28.55 V 15.5 A 14.5,14.5 0 0 0 15.5,1 Z"/>
 <path style="opacity:0.2" d="M 16.136109,5.9980802 H 16.13593 C 12.846189,5.8315655 9.5418748,7.2582777 7.4203555,10.111467 6.3212447,11.591087 5.6874579,13.264961 5.4777204,14.96595 L 6.7995108,14.770605 9.3087971,14.402979 11.400189,12.800403 7.1432871,13.428124 C 7.4351446,12.53641 7.85762,11.672357 8.449722,10.875549 10.757041,7.7709897 14.661783,6.5954913 18.157758,7.627851 L 19.376143,6.6980341 C 18.326422,6.2825655 17.232694,6.0511436 16.136109,5.9955868 Z m 5.2291,1.9578132 -3.58e-4,0.00779 -0.406203,1.2728208 -0.669528,2.1032118 0.388846,2.990797 1.337032,-4.195204 c 0.672739,0.65367 1.262237,1.412842 1.717788,2.294895 1.902931,3.683971 1.011455,8.041013 -1.905348,10.703456 l 0.0056,0.0413 c -0.02148,0.02026 -0.04306,0.04286 -0.06475,0.06311 l 3.235788,3.74693 0.993455,-0.859144 -2.496746,-2.891054 c 2.670507,-3.067315 3.358294,-7.548795 1.372664,-11.393125 -0.846299,-1.6385 -2.07171,-2.945683 -3.508255,-3.8822009 z M 5.292,17.976227 c 0.6199185,4.594074 4.2997592,8.312797 9.123042,8.789823 1.835068,0.181475 3.601982,-0.135269 5.169219,-0.830937 l -0.846488,-1.031737 -0.0048,-3.9e-4 -1.665995,-2.029655 -2.512849,-1.043346 2.849725,3.469302 c -0.914743,0.208513 -1.874645,0.292199 -2.862478,0.194488 -3.95082,-0.390379 -7.02557,-3.270295 -7.8482787,-6.933773 z"/>
 <path style="fill:#ffffff" d="M 16.136109,4.9980802 H 16.13593 C 12.846189,4.8315655 9.5418748,6.2582777 7.4203555,9.1114673 6.3212447,10.591087 5.6874579,12.264961 5.4777204,13.96595 L 6.7995108,13.770605 9.3087971,13.402979 11.400189,11.800403 7.1432871,12.428124 C 7.4351446,11.53641 7.85762,10.672357 8.449722,9.875549 10.757041,6.7709897 14.661783,5.5954913 18.157758,6.627851 L 19.376143,5.6980341 C 18.326422,5.2825655 17.232694,5.0511436 16.136109,4.9955868 Z m 5.2291,1.9578132 -3.58e-4,0.00779 -0.406203,1.2728208 -0.669528,2.1032118 0.388846,2.990797 1.337032,-4.1952039 c 0.672739,0.6536699 1.262237,1.4128419 1.717788,2.2948949 1.902931,3.683971 1.011455,8.041013 -1.905348,10.703456 l 0.0056,0.0413 c -0.02148,0.02026 -0.04306,0.04286 -0.06475,0.06311 l 3.235788,3.74693 0.993455,-0.859144 -2.496746,-2.891054 C 26.171292,19.167487 26.859079,14.686007 24.873449,10.841677 24.02715,9.2031769 22.801739,7.895994 21.365194,6.9594761 Z M 5.292,16.976227 c 0.6199185,4.594074 4.2997592,8.312797 9.123042,8.789823 1.835068,0.181475 3.601982,-0.135269 5.169219,-0.830937 l -0.846488,-1.031737 -0.0048,-3.9e-4 -1.665995,-2.029655 -2.512849,-1.043346 2.849725,3.469302 c -0.914743,0.208513 -1.874645,0.292199 -2.862478,0.194488 -3.95082,-0.390379 -7.02557,-3.270295 -7.8482787,-6.933773 z"/>
 <path style="fill:#ffffff;opacity:0.2" d="M 15.5 1 A 14.5 14.5 0 0 0 1 15.5 A 14.5 14.5 0 0 0 1.0214844 15.919922 A 14.5 14.5 0 0 1 15.5 2 A 14.5 14.5 0 0 1 30 16.5 L 30 15.5 A 14.5 14.5 0 0 0 15.5 1 z"/>
</svg>

<svg xmlns="http://www.w3.org/2000/svg" width="32" height="32" version="1"><path style="opacity:.2" d="M15.5 2A14.5 14.5 0 0 0 1 16.5 14.5 14.5 0 0 0 15.5 31h13.05c.803 0 1.45-.647 1.45-1.45V16.5A14.5 14.5 0 0 0 15.5 2z"/><path style="fill:#1d99f3" d="M15.5 1A14.5 14.5 0 0 0 1 15.5 14.5 14.5 0 0 0 15.5 30h13.05c.803 0 1.45-.647 1.45-1.45V15.5A14.5 14.5 0 0 0 15.5 1z"/><path style="opacity:.2" d="M16.136 5.998a10.19 10.19 0 0 0-8.716 4.113 10.204 10.204 0 0 0-1.942 4.855L6.8 14.77l2.509-.368L11.4 12.8l-4.257.628a8.883 8.883 0 0 1 1.307-2.552 8.928 8.928 0 0 1 9.708-3.248l1.218-.93a10.197 10.197 0 0 0-3.24-.702zm5.23 1.958-.001.008-.406 1.273-.67 2.103.389 2.99 1.337-4.195a8.872 8.872 0 0 1 1.718 2.295 8.923 8.923 0 0 1-1.906 10.704l.006.041-.065.063 3.236 3.747.994-.86-2.497-2.89c2.67-3.068 3.358-7.549 1.372-11.393a10.212 10.212 0 0 0-3.508-3.883zM5.291 17.976c.62 4.594 4.3 8.313 9.123 8.79a10.224 10.224 0 0 0 5.17-.83l-.847-1.033h-.005l-1.666-2.03-2.513-1.043 2.85 3.47a8.894 8.894 0 0 1-2.863.194 8.928 8.928 0 0 1-7.848-6.934z"/><path style="fill:#fff" d="M16.136 4.998A10.19 10.19 0 0 0 7.42 9.111a10.204 10.204 0 0 0-1.942 4.855L6.8 13.77l2.509-.368L11.4 11.8l-4.257.628A8.883 8.883 0 0 1 8.45 9.876a8.928 8.928 0 0 1 9.708-3.248l1.218-.93a10.197 10.197 0 0 0-3.24-.702zm5.23 1.958-.001.008-.406 1.273-.67 2.103.389 2.99 1.337-4.195a8.872 8.872 0 0 1 1.718 2.295 8.923 8.923 0 0 1-1.906 10.704l.006.041-.065.063 3.236 3.747.994-.86-2.497-2.89c2.67-3.068 3.358-7.549 1.372-11.393a10.212 10.212 0 0 0-3.508-3.883zM5.291 16.976c.62 4.594 4.3 8.313 9.123 8.79a10.224 10.224 0 0 0 5.17-.83l-.847-1.033h-.005l-1.666-2.03-2.513-1.043 2.85 3.47a8.894 8.894 0 0 1-2.863.194 8.928 8.928 0 0 1-7.848-6.934z"/><path style="fill:#fff;opacity:.2" d="M15.5 1A14.5 14.5 0 0 0 1 15.5a14.5 14.5 0 0 0 .021.42A14.5 14.5 0 0 1 15.5 2 14.5 14.5 0 0 1 30 16.5v-1A14.5 14.5 0 0 0 15.5 1z"/></svg>
